X: 1895
T: Stan Treacy's Very Particular Waltz
B: australian traditional tunes wiki
M:3/4
R: Waltz
Q: 1/4=100
K:D
V:1 
"D"f4e2|d4B2|A3G FE|D3E FG|"A"A2G2F2|(3EFE D2E2|"D"F4G2|A4"A"Ad|
"D"f4e2|d4B2|A3G FE|D3E FG|"A"A2G2F2|"A"E2c3e|"D"d2ddd2|d4z2||
"D"A2Bc de|f2d2BF|"G"G2BB B2|"(Em)"G2BB BB|"A"A2cd ef|gf ed cB|"A"A2aa aa|A2aaa2|
"D"A2Bc de|f2d2BF|"G"G2BB B2|"(Em)"G2BB BB|"A"A2cd ef|gf ed cB|"A"A2ag ec|"D"d4||
% abcbook-tune_id 6342d53a70bc9bc43856be58


% abcbook-boost 0
% abcbook-tablature 
% abcbook-transpose 
% abcbook-lastupdated 1665324391276
% abcbook-soundfonts 
% abcbook-repeats 1
% NFF Book 2016

